X: 9
T:Miss Susan Cooper
M:4/4
L:1/8
C:Ronnie Cooper
R:Reel
K:D
(3ABc|"D"dfed "G"B2 dB|"D"A2 FA DAFA|"D"ABde "Bm"fa^ga|"G"=g2 fd "A"eAce
|!
|"D"dfed "G"B2 dB|"D"A2 FA DAFA|"D"ABde fafd|"A"eAce "D"d2:|!
|:dc|"Bm"Bcde fBBB|"Bm"def^g "E"a2 gf|"A"eAce a2 ^ga|"Em"=g2 fd "A"eAce|
